X:1
T:Omnes amici mei - Viadana
T:James Gibb editions
T:#
%%score [ 1 2 3 4 ]
L:1/8
Q:1/4=200
M:none
K:C
V:1 treble nm="Soprano" snm="S"
V:2 treble nm="Alto" snm="A"
V:3 treble-8 nm="Tenor" snm="T"
V:4 bass nm="Bass" snm="B"
V:1
"^Omnes amici mei""^Ludovico da Viadana\n(1560-1627)" c8 c4 c4 | B4 ^c4 d8 | c4 c4 c6 B2 | %3
w: O- mnes a-|mi- ci me-|i de- re- li-|
 A4 A4 ^G8 | z4 A4 A4 A2 A2 | _B8 A4 c4 | B6 c2 A4 c4 | (c4 B4) c4 c4- | c2 B2 A4 B4 c4 | %9
w: que- runt me,|et prae- va- lu-|e- runt in-|si- di- an- tes|mi\- * hi: tra\-|* di- dit me quem|
 c2 A2 (d8 ^c4) | !fermata!d16 || d8 B2 B2 B2 B2 | c4 c6 c2 B4 | B8 d4 d4 | d8 c4 c4 | %15
w: di- li- ge\- *|bam.|Et ter- ri- bi- li-|bus o- cu- lis|pla- ga cru-|de- li per-|
 c6 B2 A4 G4 | B8 B4 A4 | A4 A8 ^G4 | A16 || A16 | B16 | c16 | c6 c2 B4 (d4- | d4 ^c4) d16 || %24
w: cu- ti- en- tes,|a- ce- to|po- ta- bant|me.|Inter~iniquos~projecerunt|me,|et~non~pepercerunt|a- ni- mae me\-|* * ae.|
 d8 B2 B2 B2 B2 | c4 c6 c2 B4 | B8 d4 d4 | d8 c4 c4 | c6 B2 A4 G4 | %29
w: Et ter- ri- bi- li-|bus o- cu- lis|pla- ga cru-|de- li per-|cu- ti- en- tes,|
[Q:1/4=195] B8[Q:1/4=190] B4[Q:1/4=186] A4 |[Q:1/4=182] A4[Q:1/4=177] A8[Q:1/4=171] ^G4 | %31
w: a- ce- to|po- ta- bant|
[Q:1/4=170] A16 |] %32
w: me.|
V:2
 A8 A4 A4 | ^G4 A4 A8 | A4 A4 G6 G2 | E4 D4 E8 | z4 E4 E4 E2 F2 | G8 C4 A4 | G6 G2 F4 E4 | %7
w: O- mnes a-|mi- ci me-|i de- re- li-|que- runt me,|et prae- va- lu-|e- runt in-|si- di- an- tes|
 G8 G4 G4- | G2 G2 E4 G4 G4 | A4 A4 A8 | !fermata!A16 || A8 G2 G2 G2 G2 | G4 A6 G2 G4 | G8 _B4 B4 | %14
w: mi- hi: tra\-|* di- dit me quem|di- li- ge-|bam.|Et ter- ri- bi- li-|bus o- cu- lis|pla- ga cru-|
 _B8 A4 A4 | G6 G2 E8 | ^F4 F4 G4 E4 | z4 D4 E4 E4 | E16 || ^F16 | G16 | A16 | G8 G4 _B4 | %23
w: de- li per-|cu- ti- en-|tes, a- ce- to|po- ta- bant|me.|Inter~iniquos~projecerunt|me,|et~non~pepercerunt|a- ni- mae|
 A8 A16 || A8 G2 G2 G2 G2 | G4 A6 G2 G4 | G8 _B4 B4 | _B8 A4 A4 | G6 G2 E8 | ^F4 F4 G4 E4 | %30
w: me- ae.|Et ter- ri- bi- li-|bus o- cu- lis|pla- ga cru-|de- li per-|cu- ti- en-|tes, a- ce- to|
 z4 D4 E4 E4 | E16 |] %32
w: po- ta- bant|me.|
V:3
 e8 e4 e4 | e4 e4 f8 | e4 e4 e6 d2 | c4 A4 B8 | z4 c4 c4 c2 c2 | (d4 e4) f4 f4 | d6 e2 c4 c4 | %7
w: O- mnes a-|mi- ci me-|i de- re- li-|que- runt me,|et prae- va- lu-|e\- * runt in-|si- di- an- tes|
 d8 c4 e4- | e2 d2 c4 d4 e4 | c4 f4 e8 | !fermata!d16 || f8 d2 d2 d2 d2 | e4 f6 e2 d4 | d8 g4 g4 | %14
w: mi- hi: tra\-|* di- dit me quem|di- li- ge-|bam.|Et ter- ri- bi- li-|bus o- cu- lis|pla- ga cru-|
 f8 f4 f4 | e6 d2 c4 e4 | ^d8 e4 c4 | (c4 B2 A2) B4 B4 | A16 || d16 | d16 | f16 | e8 d4 g4 | %23
w: de- li per-|cu- ti- en- tes,|a- ce- to|po\- * * ta- bant|me.|Inter~iniquos~projecerunt|me,|et~non~pepercerunt|a- ni- mae|
 e8 ^f16 || f8 d2 d2 d2 d2 | e4 f6 e2 d4 | d8 g4 g4 | f8 f4 f4 | e6 d2 c4 e4 | ^d8 e4 c4 | %30
w: me- ae.|Et ter- ri- bi- li-|bus o- cu- lis|pla- ga cru-|de- li per-|cu- ti- en- tes,|a- ce- to|
 (c4 B2 A2) B4 B4 | A16 |] %32
w: po\- * * ta- bant|me.|
V:4
 A,8 A,4 A,4 | E,4 A,4 D,8 | A,4 A,4 C6 G,2 | A,4 F,4 E,8 | z4 A,4 A,4 A,2 A,2 | G,8 F,4 F,4 | %6
w: O- mnes a-|mi- ci me-|i de- re- li-|que- runt me,|et prae- va- lu-|e- runt in-|
 G,6 E,2 F,4 A,4 | G,8 C,4 C4- | C2 G,2 A,4 G,4 E,4 | F,4 D,4 A,8 | !fermata!D,16 || %11
w: si- di- an- tes|mi- hi: tra\-|* di- dit me quem|di- li- ge-|bam.|
 D8 G,2 G,2 G,2 G,2 | C4 F,6 C,2 G,4 | G,8 G,4 G,4 | _B,8 F,4 F,4 | C6 G,2 A,4 C4 | %16
w: Et ter- ri- bi- li-|bus o- cu- lis|pla- ga cru-|de- li per-|cu- ti- en- tes,|
 !courtesy!=B,8 E,4 A,4 | F,8 E,4 E,4 | A,16 || D,16 | G,16 | F,16 | C6 C2 G,8 | A,8 D,16 || %24
w: a- ce- to|po- ta- bant|me.|Inter~iniquos~projecerunt|me,|et~non~pepercerunt|a- ni- mae|me- ae.|
 D8 G,2 G,2 G,2 G,2 | C4 F,6 C,2 G,4 | G,8 G,4 G,4 | _B,8 F,4 F,4 | C6 G,2 A,4 C4 | =B,8 E,4 A,4 | %30
w: Et ter- ri- bi- li-|bus o- cu- lis|pla- ga cru-|de- li per-|cu- ti- en- tes,|a- ce- to|
 F,8 E,4 E,4 | A,16 |] %32
w: po- ta- bant|me.|

